app/assets/images/payment_icons/satisfi.svg

<svg xmlns="http://www.w3.org/2000/svg" viewBox="0 0 38 24" width="38" height="24" role="img" aria-labelledby="pi-satisfi"><title id="pi-satisfi">SatisFi</title><rect width="38" height="24" fill="white"/><path d="M7.58388 7.38323C7.31291 6.76935 6.69778 6.38013 6.027 6.39813C5.64458 6.37946 5.27058 6.51461 4.98845 6.77345C4.70631 7.03229 4.53951 7.39328 4.52524 7.7759C4.52524 8.58189 5.33123 8.94011 5.94433 9.21566L6.55055 9.47744C7.71476 10.001 8.69987 10.5797 8.69987 12.0194C8.70376 13.5496 7.47442 14.7974 5.94433 14.8163H5.86856C4.47343 14.8639 3.26309 13.8607 3.05103 12.481L4.02924 12.2054C4.12311 13.145 4.90381 13.8666 5.84789 13.8863C6.84598 13.9094 7.67468 13.1208 7.70099 12.1227C7.70099 11.0619 6.87433 10.7036 6.03389 10.3179L5.48278 10.0837C4.42879 9.59455 3.51947 9.06411 3.51947 7.76212C3.53676 7.11722 3.81623 6.50725 4.29335 6.07303C4.77047 5.63881 5.404 5.41788 6.04767 5.46125C7.02555 5.44283 7.93085 5.97536 8.38987 6.83901L7.58388 7.38323Z" fill="#1D1D1B"/><path fill-rule="evenodd" clip-rule="evenodd" d="M14.3762 14.6648H15.3338V9.02285H14.3762V9.82196C13.916 9.22163 13.2038 8.86809 12.4473 8.86441C10.7527 8.86441 9.73314 10.2422 9.73314 11.8542C9.67614 12.6106 9.93348 13.357 10.4445 13.9176C10.9556 14.4782 11.6751 14.8033 12.4336 14.8164C13.1947 14.8374 13.9188 14.4882 14.3762 13.8795V14.6648ZM12.5369 13.9415C11.3382 13.9415 10.6907 12.8943 10.6907 11.7852C10.6549 11.2673 10.8302 10.7569 11.1766 10.3702C11.5231 9.98354 12.0112 9.75347 12.53 9.73238C13.0644 9.72801 13.5756 9.95042 13.9368 10.3444C14.2979 10.7384 14.4751 11.267 14.4244 11.799C14.4244 12.9426 13.7355 13.9415 12.5369 13.9415Z" fill="#1D1D1B"/><path d="M18.1169 14.6647H17.1593V9.91144H16.5738V9.02278H17.1593V6.99747H18.1169V9.02278H19.1295V9.91144H18.1169V14.6647Z" fill="#1D1D1B"/><path d="M25.4122 10.3317C25.288 10.0092 24.9916 9.78496 24.6475 9.75307C24.29 9.75162 23.9908 10.0239 23.9586 10.38C23.9586 10.9035 24.6062 11.0688 25.2606 11.3651C26.0092 11.5506 26.5419 12.213 26.5626 12.9839C26.561 13.4833 26.3572 13.9608 25.9976 14.3073C25.6381 14.6539 25.1535 14.84 24.6544 14.8232C23.7466 14.8327 22.9389 14.2486 22.6635 13.3835L23.5246 13.039C23.7657 13.5695 24.0482 13.9415 24.6751 13.9415C24.9202 13.9575 25.1605 13.8681 25.3355 13.6957C25.5105 13.5233 25.6036 13.2844 25.5913 13.039C25.5913 11.7784 23.0493 12.2124 23.0493 10.4351C23.0508 9.99835 23.2301 9.5811 23.546 9.27952C23.8619 8.97795 24.287 8.81811 24.7233 8.83685C25.3861 8.86048 25.9737 9.27016 26.225 9.88396L25.4122 10.3317Z" fill="#1D1D1B"/><path d="M28.9323 6.54972V9.24325H31.9428V10.1801H28.9323V14.6648H27.9197V5.61972H32.053V6.54972H28.9323Z" fill="#1D1D1B"/><circle cx="20.652" cy="6.90102" r="0.681994" fill="#4C8A32"/><path d="M33.851 14.6648C33.851 18.1726 31.0073 21.0163 27.4995 21.0163C23.9916 21.0163 21.148 18.1726 21.148 14.6648V9.02284H20.1697V14.6648C20.1697 18.7129 23.4514 21.9945 27.4995 21.9945C31.5475 21.9945 34.8292 18.7129 34.8292 14.6648V9.02284H33.851V14.6648Z" fill="#4C8A32"/><circle cx="34.3331" cy="6.90102" r="0.681994" fill="#4C8A32"/><path d="M4.48392 17.3515V18.1988H4.39437V17.3515H4.28415V17.2619H4.38748V16.821C4.38748 16.5593 4.51837 16.5041 4.63548 16.5041H4.71125V16.5868H4.64237C4.56659 16.5868 4.48392 16.6213 4.48392 16.8348V17.2619H4.71125V17.3515H4.48392Z" fill="#3B3C43"/><path d="M4.9248 17.2619H5.01436V17.3859C5.03291 17.3299 5.07377 17.2841 5.12726 17.2593C5.18075 17.2346 5.24211 17.233 5.2968 17.255L5.25546 17.3446C5.23291 17.3384 5.20913 17.3384 5.18658 17.3446C4.99369 17.3446 4.99369 17.5994 4.99369 17.7097V18.2126H4.9248V17.2619Z" fill="#3B3C43"/><path fill-rule="evenodd" clip-rule="evenodd" d="M5.99259 18.2194C6.26271 18.2194 6.48169 18.0004 6.48169 17.7303V17.7165C6.47988 17.5886 6.42733 17.4667 6.3356 17.3776C6.24387 17.2884 6.12048 17.2394 5.99259 17.2412C5.72246 17.2412 5.50348 17.4602 5.50348 17.7303C5.50348 18.0004 5.72246 18.2194 5.99259 18.2194ZM5.9859 17.3447C6.20272 17.3408 6.38158 17.5135 6.38541 17.7303C6.38726 17.8345 6.34764 17.9351 6.27529 18.01C6.20294 18.0849 6.10379 18.1281 5.99964 18.1299C5.78283 18.1336 5.604 17.9609 5.60021 17.7441C5.59642 17.5273 5.76909 17.3485 5.9859 17.3447Z" fill="#3B3C43"/><path d="M6.79852 17.2618H6.88808V17.3789C6.92992 17.3048 7.00228 17.2528 7.0859 17.2369C7.16952 17.221 7.25591 17.2427 7.32207 17.2962C7.37012 17.324 7.40674 17.368 7.42541 17.4202C7.47173 17.3105 7.58198 17.2416 7.70096 17.248C7.77812 17.2469 7.85252 17.2767 7.90763 17.3307C7.96917 17.4006 7.99908 17.4928 7.99029 17.5856V18.2056H7.87318V17.5718C7.8797 17.5029 7.86002 17.434 7.81807 17.3789C7.78156 17.3432 7.7311 17.3255 7.68029 17.3307C7.4323 17.3307 7.4323 17.5787 7.4323 17.6338V18.1987H7.32207V17.5994C7.32207 17.5374 7.32207 17.3376 7.11541 17.3376C6.90874 17.3376 6.8743 17.4754 6.8743 17.6614V18.1987H6.80541L6.79852 17.2618Z" fill="#3B3C43"/><path d="M9.64363 16.9312C9.59115 16.8154 9.47452 16.7422 9.34741 16.7452C9.27613 16.7415 9.20629 16.7662 9.1533 16.814C9.10031 16.8619 9.06853 16.9288 9.06497 17.0001C9.06497 17.1654 9.17519 17.2205 9.32674 17.2963C9.43253 17.3395 9.53402 17.3925 9.62985 17.4548C9.73376 17.5162 9.79484 17.6304 9.78829 17.751C9.7865 17.871 9.73663 17.9852 9.64986 18.0681C9.56309 18.151 9.44668 18.1956 9.32674 18.1919C9.19153 18.1957 9.06201 18.1373 8.97541 18.0334C8.93283 17.9851 8.90008 17.9289 8.87897 17.8681L8.94097 17.8612C8.96017 17.9137 8.98812 17.9626 9.02363 18.0059C9.09735 18.0883 9.20239 18.1358 9.31296 18.1367C9.40616 18.1405 9.49702 18.107 9.5655 18.0437C9.63399 17.9804 9.67449 17.8924 9.67807 17.7992C9.67911 17.698 9.62319 17.6048 9.53341 17.5581L9.27163 17.4272C9.16325 17.387 9.06957 17.315 9.00297 17.2205C8.9731 17.1682 8.95876 17.1085 8.96163 17.0483C8.95594 16.9498 8.99115 16.8533 9.05896 16.7815C9.12676 16.7098 9.22116 16.6693 9.31985 16.6694C9.47479 16.6624 9.61981 16.7456 9.69185 16.883L9.64363 16.9312Z" fill="#3B3C43"/><path d="M10.4289 18.2125L9.98108 17.2619H10.0775L10.4702 18.0954L10.8077 17.2619H10.918L10.3049 18.7223H10.1946L10.4289 18.2125Z" fill="#3B3C43"/><path d="M11.1522 17.2618H11.2417V17.4065C11.2979 17.3033 11.4067 17.2396 11.5242 17.2411C11.629 17.2326 11.7299 17.2831 11.786 17.372C11.8217 17.4447 11.8383 17.5253 11.8342 17.6063V18.1987H11.7446V17.6063C11.7482 17.5416 11.7339 17.4773 11.7033 17.4203C11.6674 17.3567 11.5966 17.3213 11.5242 17.3307C11.4296 17.3274 11.3415 17.3782 11.2968 17.4616C11.2573 17.5379 11.2406 17.624 11.2486 17.7096V18.1987H11.1591L11.1522 17.2618Z" fill="#3B3C43"/><path d="M12.964 17.4824C12.8807 17.3866 12.7602 17.3314 12.6333 17.3308C12.526 17.3361 12.4254 17.3844 12.3541 17.4647C12.2828 17.5451 12.2469 17.6508 12.2544 17.7579C12.2678 17.9614 12.4299 18.1234 12.6333 18.1368C12.7619 18.1253 12.8808 18.0634 12.964 17.9646V18.0886C12.8688 18.1725 12.7464 18.219 12.6195 18.2195C12.4904 18.2195 12.3667 18.1677 12.2761 18.0758C12.1855 17.9839 12.1355 17.8594 12.1373 17.7304C12.1375 17.5398 12.2484 17.3667 12.4215 17.2868C12.5945 17.207 12.7981 17.2349 12.9433 17.3584L12.964 17.4824Z" fill="#3B3C43"/><path d="M13.2602 16.5316H13.3498V17.4065C13.4083 17.3021 13.5195 17.2386 13.6391 17.2411C13.7436 17.2342 13.8438 17.2842 13.9009 17.372C13.9346 17.4452 13.9488 17.5259 13.9422 17.6062V18.1987H13.8527V17.6062C13.8588 17.5422 13.8468 17.4778 13.8182 17.4202C13.7776 17.3582 13.706 17.3237 13.6322 17.3307C13.5364 17.3218 13.4453 17.3742 13.4049 17.4616C13.3664 17.5385 13.3475 17.6236 13.3498 17.7096V18.1987H13.2602V16.5316Z" fill="#3B3C43"/><path d="M14.3211 17.2619H14.4107V17.3859C14.4425 17.2991 14.525 17.2414 14.6174 17.2412C14.6487 17.2312 14.6824 17.2312 14.7138 17.2412L14.6656 17.317H14.6036C14.4107 17.317 14.4107 17.565 14.4107 17.6821V18.185H14.3211V17.2619Z" fill="#3B3C43"/><path fill-rule="evenodd" clip-rule="evenodd" d="M14.8998 17.7304C14.8998 18.0005 15.1188 18.2195 15.3889 18.2195C15.659 18.2195 15.878 18.0005 15.878 17.7304C15.878 17.6006 15.8265 17.4762 15.7347 17.3845C15.643 17.2928 15.5186 17.2413 15.3889 17.2413C15.1188 17.2413 14.8998 17.4602 14.8998 17.7304ZM15.3891 17.3379C15.606 17.3379 15.7818 17.5137 15.7818 17.7305C15.7781 17.9421 15.6075 18.1126 15.396 18.1163C15.1806 18.1164 15.0039 17.9458 14.9965 17.7305C14.9965 17.5137 15.1723 17.3379 15.3891 17.3379Z" fill="#3B3C43"/><path d="M16.188 17.2618H16.2776V17.4065C16.3338 17.3033 16.4425 17.2396 16.56 17.2411C16.6649 17.2326 16.7657 17.2831 16.8218 17.372C16.8576 17.4447 16.8742 17.5253 16.87 17.6063V18.1987H16.7736V17.6063C16.7797 17.5423 16.7678 17.4778 16.7391 17.4203C16.6986 17.3582 16.627 17.3237 16.5531 17.3307C16.4573 17.3218 16.3662 17.3742 16.3258 17.4616C16.2863 17.5379 16.2695 17.624 16.2776 17.7096V18.1987H16.1812L16.188 17.2618Z" fill="#3B3C43"/><path d="M17.5452 18.2125L17.0974 17.2619H17.2076L17.6003 18.0954L17.9378 17.2619H18.0412L17.4281 18.7223H17.3247L17.5452 18.2125Z" fill="#3B3C43"/></svg>

<svg xmlns="http://www.w3.org/2000/svg" viewBox="0 0 38 24" width="38" height="24" role="img" aria-labelledby="pi-satisfi"><title id="pi-satisfi">SatisFi</title><path fill="#fff" d="M0 0h38v24H0z"/><path d="M7.584 7.383a1.653 1.653 0 00-1.557-.985 1.433 1.433 0 00-1.502 1.378c0 .806.806 1.164 1.42 1.44l.606.261C7.715 10.001 8.7 10.58 8.7 12.02a2.79 2.79 0 01-2.756 2.797H5.87a2.756 2.756 0 01-2.818-2.335l.978-.276c.094.94.875 1.662 1.819 1.681A1.812 1.812 0 007.7 12.123c0-1.061-.827-1.42-1.667-1.805l-.551-.234c-1.054-.49-1.964-1.02-1.964-2.322a2.37 2.37 0 012.529-2.3A2.597 2.597 0 018.39 6.838l-.806.544z" fill="#1D1D1B"/><path fill-rule="evenodd" clip-rule="evenodd" d="M14.376 14.665h.958V9.023h-.958v.799a2.445 2.445 0 00-1.929-.958c-1.694 0-2.714 1.378-2.714 2.99a2.756 2.756 0 002.7 2.962 2.349 2.349 0 001.943-.937v.786zm-1.84-.723c-1.198 0-1.845-1.048-1.845-2.157a1.922 1.922 0 011.839-2.053 1.888 1.888 0 011.894 2.067c0 1.144-.688 2.143-1.887 2.143z" fill="#1D1D1B"/><path d="M18.117 14.665h-.958V9.91h-.585v-.888h.585V6.997h.958v2.026h1.012v.888h-1.012v4.754zM25.412 10.332a.91.91 0 00-.764-.579.689.689 0 00-.69.627c0 .523.648.689 1.303.985a1.715 1.715 0 011.302 1.619 1.846 1.846 0 01-1.909 1.84 2.067 2.067 0 01-1.99-1.44l.86-.345c.242.53.524.902 1.151.902a.861.861 0 00.916-.902c0-1.26-2.542-.827-2.542-2.604a1.605 1.605 0 011.674-1.598c.663.023 1.25.433 1.502 1.047l-.813.448zM28.932 6.55v2.693h3.01v.937h-3.01v4.485H27.92V5.62h4.133v.93h-3.12z" fill="#1D1D1B"/><circle cx="20.652" cy="6.901" r=".682" fill="#4C8A32"/><path d="M33.851 14.665a6.352 6.352 0 01-12.703 0V9.023h-.978v5.642a7.33 7.33 0 0014.66 0V9.023h-.979v5.642z" fill="#4C8A32"/><circle cx="34.333" cy="6.901" r=".682" fill="#4C8A32"/><path d="M4.484 17.352v.847h-.09v-.848h-.11v-.09h.103v-.44c0-.262.131-.317.248-.317h.076v.083h-.069c-.075 0-.158.034-.158.248v.427h.227v.09h-.227zM4.925 17.262h.09v.124a.214.214 0 01.282-.131l-.042.09a.13.13 0 00-.068 0c-.193 0-.193.254-.193.365v.503h-.07v-.951z" fill="#3B3C43"/><path fill-rule="evenodd" clip-rule="evenodd" d="M5.993 18.22a.49.49 0 00.489-.49v-.014a.482.482 0 00-.49-.475.49.49 0 000 .978zm-.007-.875A.393.393 0 116 18.13a.393.393 0 01-.014-.785z" fill="#3B3C43"/><path d="M6.799 17.262h.09v.117a.29.29 0 01.433-.083.235.235 0 01.103.124.283.283 0 01.276-.172.29.29 0 01.207.083c.061.07.091.162.082.255v.62h-.117v-.634a.276.276 0 00-.055-.193.172.172 0 00-.138-.048c-.248 0-.248.248-.248.303v.565h-.11v-.6c0-.062 0-.261-.207-.261-.206 0-.24.137-.24.323v.538h-.07l-.006-.937zM9.644 16.931a.317.317 0 00-.297-.186.269.269 0 00-.282.255c0 .165.11.22.262.296.106.044.207.096.303.159a.324.324 0 01.158.296.448.448 0 01-.461.44.441.441 0 01-.352-.158.496.496 0 01-.096-.165l.062-.007a.393.393 0 00.372.276.351.351 0 00.365-.338.269.269 0 00-.145-.24l-.261-.132a.572.572 0 01-.269-.206.317.317 0 01-.041-.173.358.358 0 01.358-.379.4.4 0 01.372.214l-.048.048zM10.429 18.212l-.448-.95h.097l.392.833.338-.833h.11l-.613 1.46h-.11l.234-.51zM11.152 17.262h.09v.145a.317.317 0 01.282-.166.283.283 0 01.262.131.477.477 0 01.048.234v.593h-.09v-.593a.352.352 0 00-.04-.186.18.18 0 00-.18-.09.248.248 0 00-.227.132.449.449 0 00-.048.248v.489h-.09l-.007-.937zM12.964 17.482a.44.44 0 00-.33-.151.4.4 0 00-.38.427.406.406 0 00.38.379.49.49 0 00.33-.172v.124a.524.524 0 01-.345.13.482.482 0 01-.482-.489.49.49 0 01.806-.372l.021.124zM13.26 16.532h.09v.875a.324.324 0 01.29-.166.29.29 0 01.26.131.468.468 0 01.042.234v.593h-.09v-.593a.345.345 0 00-.034-.186.2.2 0 00-.186-.09.227.227 0 00-.227.132.522.522 0 00-.055.248v.489h-.09v-1.667zM14.321 17.262h.09v.124a.22.22 0 01.206-.145.159.159 0 01.097 0l-.048.076h-.062c-.193 0-.193.248-.193.365v.503h-.09v-.923z" fill="#3B3C43"/><path fill-rule="evenodd" clip-rule="evenodd" d="M14.9 17.73a.49.49 0 10.978 0 .49.49 0 00-.978 0zm.49-.392c.216 0 .392.176.392.392a.393.393 0 01-.386.386.4.4 0 01-.4-.386c0-.216.176-.392.393-.392z" fill="#3B3C43"/><path d="M16.188 17.262h.09v.145a.317.317 0 01.282-.166.283.283 0 01.262.131.475.475 0 01.048.234v.593h-.096v-.593a.344.344 0 00-.035-.186.2.2 0 00-.186-.09.227.227 0 00-.227.132.448.448 0 00-.048.248v.489h-.097l.007-.937zM17.545 18.212l-.448-.95h.11l.393.833.338-.833h.103l-.613 1.46h-.103l.22-.51z" fill="#3B3C43"/></svg>
